X: 1
T: Mrs. Stewart Nicholson
R: strathspey
Z: 2004 John Chambers <jc:trillian.mit.edu>
S: handwritten MS of unknown origin
M: C
L: 1/16
K: D
A2 \
| "D"F3E D2F2 "Em"B,B,3 E4 | "A7"DCB,A, A,2B,C "D"D2F2 A2d2 \
| "D"F3E D2F2 "Em"B,B,3 E4 | "A7"DCB,A, B,2C2 "D"D4 D2 :|
B2 \
| "D"A2d2 d2ef "Em"eB3 B3e | "A7"c3B A2Bc "D"defg a3d \
| "D"A2d2 d2ef "Em"eB3 B3e | "A7"c3B ABcA "D"d4 D2 |
B2 \
| "D"A2d2 d2ef "Em"eB3 B3e | "A7"c3B A2Bc "D"defg a3d \
| "D"A3d "G"B3d "D"AB3 F3D | "A7"DCB,A, B,2C2 "D"D4 D2 |]
